X: 26061
T: The Roxburgh Quick Step
R: jig
B: RSCDS 26-6
Z: 1997 by John Chambers <jc:trillian.mit.edu>
M: 6/8
L: 1/8
%--------------------
K: D
A, \
[|"D"D3 FEF | A2d F2F | "Em"G2B E2D | "A7"CEA A,B,C \
| "D"D3 FEF | A2d F2F | "G"GBA "Em"GFE | "A7"E3 "D"D2A |]
|:"D"d3 fdf | a2a f2d | A2d "Em"G2A | "A7"GEE E2A \
| "D"d3 fdf | a2a "Bm"f2d | "E7"Bdc BA^G |1 "A7"ABA ABc :|2 "A7"ABA GFE |]
[|"D"D3 FEF | A2d F2F | "Em"G2B E2D | "A7"CEA A,B,C \
| "D"D3 FEF | A2d F2F | "G"GBA "Em"GFE | "A7"E3 "D"D2 |]
%%center Book26/26061-Roxburgh_Quick_Step-4.abc

%%sep 1 1 500
%%sep 1 1 500

